X:15
T:Cuckoo's Nest
Z: id:dc-hornpipe-14
M:C|
L:1/8
K:G Major
dc|BABA GBdg|fdcB cedc|BABG FGAB|c2A2 A2dc|!
BABA GBdg|fdcB cedc|BABG FGAc|B2G2 G2:|!
Bc|dBGB dBGB|dcBA G2AB|cAFA cAFA|cBAG F2D2|!
GABc d2g2|fdcB cedc|BABG FGAc|B2G2 G2:|!
Bc|dggf gabg|afd^c d2de|=fede ^fgaf|gfdB cedc|!
BABA GBdg|fdcB cedc|BABG FGAc|B2G2 G2:|!